trunk/WorldWind/resources/milstd2525/icons/war/shgaima--------.svg

<?xml version="1.0" encoding="UTF-8" standalone="no"?>
<!--
Copyright (C) 2012 United States Government as represented by the Administrator of the
National Aeronautics and Space Administration.
All Rights Reserved.
-->

<!--
MIL-STD-2525 tactical symbol icon image. During icon composition this image is multiplied by the desired frame color 
(e.g. black), then drawn on top of the frame and fill.
-->

<svg
   xmlns:dc="http://purl.org/dc/elements/1.1/"
   xmlns:cc="http://creativecommons.org/ns#"
   xmlns:rdf="http://www.w3.org/1999/02/22-rdf-syntax-ns#"
   xmlns:svg="http://www.w3.org/2000/svg"
   xmlns="http://www.w3.org/2000/svg"
   xmlns:sodipodi="http://sodipodi.sourceforge.net/DTD/sodipodi-0.dtd"
   xmlns:inkscape="http://www.inkscape.org/namespaces/inkscape"
   height="400px"
   viewBox="0 0 400 400"
   width="400px"
   id="svg2"
   version="1.1"
   inkscape:version="0.48.2 r9819"
   sodipodi:docname="shgaima--------.svg">
  <metadata
     id="metadata12">
    <rdf:RDF>
      <cc:Work
         rdf:about="">
        <dc:format>image/svg+xml</dc:format>
        <dc:type
           rdf:resource="http://purl.org/dc/dcmitype/StillImage" />
      </cc:Work>
    </rdf:RDF>
  </metadata>
  <defs
     id="defs10" />
  <sodipodi:namedview
     pagecolor="#ffffff"
     bordercolor="#666666"
     borderopacity="1"
     objecttolerance="10"
     gridtolerance="10"
     guidetolerance="10"
     inkscape:pageopacity="0"
     inkscape:pageshadow="2"
     inkscape:window-width="640"
     inkscape:window-height="480"
     id="namedview8"
     showgrid="false"
     inkscape:zoom="0.59"
     inkscape:cx="200"
     inkscape:cy="200"
     inkscape:window-x="364"
     inkscape:window-y="148"
     inkscape:window-maximized="0"
     inkscape:current-layer="svg2" />
  <g
     transform="matrix(5,0,0,5,106,155)"
     id="g4"
     style="stroke:#000000;stroke-width:1.20000005;stroke-miterlimit:4;stroke-opacity:1;stroke-dasharray:2.4, 1.2;stroke-dashoffset:0">
    <path
       inkscape:connector-curvature="0"
       d="m 37.656,9.836 c -0.385,0.387 -0.77,0.578 -1.152,0.578 L 30.455,9.191 c -0.48,0.242 -1.199,0.555 -2.16,0.939 -1.488,0.289 -3.719,0.818 -6.695,1.588 l 12.672,5.127 c -0.385,0.385 -1.248,0.77 -2.592,1.154 l -16.488,-4.85 c -1.871,0.434 -3.744,0.889 -5.615,1.367 -3.602,0.865 -5.881,1.297 -6.84,1.297 C 0.912,15.814 0,15.504 0,14.879 c 0,-0.432 0.336,-1.02 1.008,-1.764 0.672,-0.744 1.248,-1.164 1.729,-1.26 2.254,-0.576 5.615,-1.369 10.08,-2.377 0.432,-1.344 1.127,-3.432 2.088,-6.264 0.719,-0.287 1.32,-0.479 1.801,-0.576 0,1.922 0.143,3.889 0.432,5.904 C 19.633,8.012 22.92,7.24 27,6.227 c 0.238,-0.096 0.432,-0.41 0.576,-0.941 0.191,-0.82 0.287,-1.254 0.287,-1.303 0.289,-0.047 0.672,-0.168 1.152,-0.363 0.336,-0.723 0.84,-1.664 1.512,-2.822 0.047,0 0.84,-0.266 2.377,-0.797 l -1.441,7.377 z"
       style="fill:#ffffff;stroke:#000000;stroke-width:1.20000005;stroke-miterlimit:4;stroke-opacity:1;stroke-dasharray:2.4, 1.2;stroke-dashoffset:0"
       id="path6" />
  </g>
</svg>

<?xml version="1.0"?>
<!--
Copyright (C) 2012 United States Government as represented by the Administrator of the
National Aeronautics and Space Administration.
All Rights Reserved.
-->

<!DOCTYPE svg PUBLIC "-//W3C//DTD SVG 1.1//EN" "http://www.w3.org/Graphics/SVG/1.1/DTD/svg11.dtd" >
<!--
MIL-STD-2525 tactical symbol icon image. During icon composition this image is multiplied by the desired frame color 
(e.g. black), then drawn on top of the frame and fill.
-->
<svg xmlns:xlink="http://www.w3.org/1999/xlink" height="400px" viewBox="0 0 400 400" width="400px"><g transform="translate(106 155) scale(5 5)"><path d="M37.656 9.836 C37.271 10.223 36.886 10.414 36.504 10.414 L30.455 9.191 C29.975 9.433     29.256 9.746 28.295 10.13 C26.807 10.419 24.576 10.948 21.6 11.718 L34.272     16.845 C33.887 17.23 33.024 17.615 31.68 17.999 L15.192 13.149 C13.321 13.583     11.448 14.038 9.577 14.516 C5.975 15.381 3.696 15.813 2.737 15.813 C0.912     15.814 0 15.504 0 14.879 C0 14.447 0.336 13.859 1.008 13.115 C1.68 12.371     2.256 11.951 2.737 11.855 C4.991 11.279 8.352 10.486 12.817 9.478 C13.249 8.134     13.944 6.046 14.905 3.214 C15.624 2.927 16.225 2.735 16.706 2.638 C16.706     4.56 16.849 6.527 17.138 8.542 C19.633 8.012 22.92 7.24 27 6.227 C27.238     6.131 27.432 5.817 27.576 5.286 C27.767 4.466 27.863 4.032 27.863 3.983 C28.152     3.936 28.535 3.815 29.015 3.62 C29.351 2.897 29.855 1.956 30.527 0.798 C30.574     0.798 31.367 0.532 32.904 0.001 L31.463 7.378 z" style="fill:rgb(255,255,255)"/></g></svg>
